src/modules/lobby/components/BecomeProvider/assets/knowledge.svg

<svg width="64" height="64" viewBox="0 0 64 64" fill="none" xmlns="http://www.w3.org/2000/svg">
    <rect width="64" height="64" fill="#0F0F0F"/>
    <path d="M9.88477 29.6067C12.7366 33.7407 12.7139 35.6056 12.6958 37.4154C12.5595 50.5708 21.5737 54.6359 26.9278 54.962C27.3365 54.985 27.7315 54.9987 28.1266 54.9987C30.6025 55.0285 33.0564 54.5268 35.3265 53.5268C37.5965 52.5268 39.6311 51.0512 41.296 49.1973L44.2705 45.8809L44.3204 45.8212L45.7963 44.1722C46.3188 43.6432 46.6908 42.9815 46.873 42.2568C47.0553 41.5321 47.0411 40.7711 46.832 40.0538C46.6229 39.3365 46.2266 38.6895 45.6847 38.1808C45.1428 37.672 44.4755 37.3204 43.7528 37.1628C43.8946 36.6414 43.923 36.0951 43.8358 35.5616C43.7487 35.028 43.5483 34.52 43.2482 34.0724C42.9482 33.6248 42.5558 33.2484 42.098 32.9691C41.6402 32.6898 41.128 32.5143 40.5966 32.4546C40.7442 32.0421 40.821 31.6071 40.8237 31.1684C40.8262 30.2105 40.4997 29.2814 39.9 28.5399C39.3004 27.7984 38.4647 27.2907 37.5359 27.1033L42.4631 22.1012C42.8496 21.7114 43.1556 21.2477 43.363 20.7371C43.5705 20.2264 43.6753 19.6791 43.6714 19.127C43.6674 18.575 43.5548 18.0293 43.3401 17.5217C43.1254 17.0141 42.8129 16.5549 42.4208 16.1708C42.0288 15.7868 41.565 15.4855 41.0566 15.2847C40.5482 15.0839 40.0053 14.9876 39.4597 15.0013C38.914 15.015 38.3766 15.1385 37.8786 15.3646C37.3807 15.5907 36.9323 15.9148 36.5596 16.3181C31.1601 22.1471 24.4483 28.7799 21.8008 29.8685C20.2568 30.5116 19.8844 30.0109 18.6901 28.0312C17.8606 26.4801 16.7588 25.0948 15.4386 23.9431C13.8674 22.6524 12.0191 22.6156 10.4887 23.842C8.75856 25.2246 8.5088 27.604 9.88477 29.6067ZM42.8763 38.9128C43.1776 38.9117 43.4761 38.9712 43.7545 39.0879C44.0328 39.2046 44.2854 39.3762 44.4975 39.5926C44.7116 39.812 44.8806 40.0721 44.9949 40.3578C45.1092 40.6435 45.1666 40.9493 45.1636 41.2575C45.1606 41.5658 45.0975 41.8703 44.9777 42.1538C44.8579 42.4372 44.6839 42.6939 44.4657 42.909L43.0262 44.5121C42.6406 44.6963 42.2086 44.7567 41.7881 44.6853C41.3676 44.6139 40.9788 44.414 40.6739 44.1125L40.5921 44.0252C40.2207 43.6568 39.9975 43.1623 39.9657 42.6371C39.9338 42.112 40.0955 41.5935 40.4195 41.1819L42.6901 38.8853L42.8763 38.9128ZM41.514 34.8064C41.8502 35.1437 42.0483 35.5969 42.0685 36.0755C42.0887 36.5541 41.9296 37.0228 41.623 37.3878C41.585 37.423 41.55 37.4615 41.5185 37.5027L38.9119 40.1393C38.5438 40.2754 38.1453 40.3046 37.7616 40.2234C37.378 40.1422 37.0245 39.9539 36.7412 39.6799L36.6322 39.5697C36.2748 39.1942 36.0647 38.6999 36.0413 38.1792C36.0179 37.6584 36.1828 37.1469 36.5051 36.7402C36.8684 36.4554 38.3896 35.2381 39.198 34.5354C39.5577 34.3151 39.9796 34.2221 40.3973 34.2712C40.815 34.3202 41.2047 34.5085 41.5049 34.8064H41.514ZM38.3352 29.5194C38.5491 29.734 38.7188 29.9895 38.8342 30.271C38.9495 30.5525 39.0084 30.8545 39.0072 31.1593C38.9479 31.9055 38.6063 32.5998 38.0536 33.0976C37.4996 33.5845 36.3053 34.5537 35.4243 35.2519C35.0486 35.3604 34.6511 35.3647 34.2732 35.2645C33.8953 35.1643 33.551 34.9633 33.2763 34.6824L33.2173 34.6226C32.8038 34.204 32.5715 33.6365 32.5715 33.0448C32.5715 32.4531 32.8038 31.8856 33.2173 31.467L35.3516 29.3081C35.789 28.9725 36.3317 28.8085 36.8794 28.8465C37.4271 28.8845 37.9427 29.1219 38.3306 29.5148L38.3352 29.5194ZM11.6195 25.2614C12.4914 24.5632 13.3678 24.5908 14.2942 25.3487C15.4501 26.3681 16.4133 27.5914 17.137 28.959C17.5583 29.7564 18.0871 30.4907 18.7083 31.1409C18.7252 31.1663 18.7434 31.1908 18.7627 31.2144C18.8399 31.2971 20.5792 33.2217 18.8082 36.019C18.6888 36.2241 18.6528 36.468 18.7077 36.6993C18.7626 36.9307 18.9041 37.1315 19.1024 37.2595C19.3007 37.3875 19.5404 37.4326 19.7709 37.3855C20.0015 37.3383 20.205 37.2025 20.3385 37.0066C20.8397 36.2799 21.1747 35.4494 21.3192 34.5755C21.4637 33.7016 21.4142 32.8061 21.1741 31.9539C21.6239 31.8916 22.0637 31.7696 22.482 31.591C26.0558 30.1074 34.4343 21.3111 37.8765 17.5951C38.0856 17.367 38.3383 17.1842 38.6193 17.0579C38.9003 16.9316 39.2038 16.8643 39.5113 16.8601C39.8192 16.8553 40.125 16.9129 40.4104 17.0297C40.6959 17.1465 40.9554 17.32 41.1734 17.54C41.3869 17.7554 41.5563 18.0114 41.6719 18.2932C41.7874 18.5749 41.8469 18.877 41.8469 19.1821C41.8469 19.4872 41.7874 19.7892 41.6719 20.071C41.5563 20.3528 41.3869 20.6087 41.1734 20.8242L31.9276 30.1579C31.5519 30.5361 31.2538 30.9856 31.0504 31.4806C30.847 31.9756 30.7423 32.5064 30.7423 33.0425C30.7423 33.5786 30.847 34.1094 31.0504 34.6045C31.2538 35.0995 31.5519 35.549 31.9276 35.9272L31.9775 35.9777C32.603 36.612 33.4194 37.0177 34.2981 37.1306C34.1397 37.7935 34.1517 38.4864 34.333 39.1433C34.5142 39.8002 34.8586 40.3992 35.3334 40.8834L35.3698 40.9155L35.4061 40.9523C36.1429 41.6908 37.139 42.1037 38.1762 42.1006C38.1142 42.6876 38.1831 43.2813 38.378 43.8378C38.573 44.3942 38.8888 44.8994 39.3024 45.316L39.3705 45.394C39.8959 45.9242 40.5586 46.2936 41.2824 46.4597L39.92 47.9801L39.8837 48.0214C38.2577 49.7921 36.2588 51.1701 34.035 52.0534C31.8112 52.9368 29.4194 53.3029 27.0367 53.1247C24.6968 52.9194 22.4437 52.1303 20.4793 50.828C20.6201 50.828 20.7654 50.828 20.9107 50.828H21.2967C23.5673 50.681 25.6426 49.2892 27.4954 46.694C27.6291 46.4958 27.6809 46.2525 27.6396 46.0162C27.5982 45.7799 27.4672 45.5693 27.2744 45.4295C27.0816 45.2897 26.8423 45.2318 26.6078 45.268C26.3733 45.3043 26.1622 45.432 26.0195 45.6237C24.5073 47.755 22.8861 48.8942 21.1968 49.009C18.8399 49.1652 17.028 47.2589 17.0008 47.2314C16.9606 47.1889 16.9165 47.1505 16.8691 47.1166C15.4477 44.8474 14.4713 41.7332 14.5168 37.4292C14.544 34.9993 14.326 32.8037 11.3788 28.541C10.6931 27.5673 10.5069 26.1617 11.6195 25.2614Z" fill="url(#paint0_linear)"/>
    <path fill-rule="evenodd" clip-rule="evenodd" d="M39.7096 11.6489C39.4704 11.787 39.1646 11.7051 39.0266 11.4659L36.0946 6.38762C35.9565 6.14847 36.0385 5.84268 36.2776 5.70461L37.1436 5.20461C37.3828 5.06653 37.6886 5.14847 37.8267 5.38762L40.7586 10.4659C40.8967 10.7051 40.8147 11.0109 40.5756 11.1489L39.7096 11.6489Z" fill="#006DFF"/>
    <path fill-rule="evenodd" clip-rule="evenodd" d="M55 19.5C55 19.7761 54.7761 20 54.5 20H47.5C47.2239 20 47 19.7761 47 19.5V18.5C47 18.2239 47.2239 18 47.5 18H54.5C54.7761 18 55 18.2239 55 18.5V19.5Z" fill="#006DFF"/>
    <path fill-rule="evenodd" clip-rule="evenodd" d="M52.2071 6.35355C52.4024 6.54881 52.4024 6.8654 52.2071 7.06066L47.0607 12.2071C46.8655 12.4023 46.5489 12.4023 46.3536 12.2071L45.6465 11.5C45.4513 11.3047 45.4513 10.9881 45.6465 10.7929L50.7929 5.64645C50.9882 5.45118 51.3048 5.45118 51.5 5.64645L52.2071 6.35355Z" fill="#006DFF"/>
    <defs>
        <linearGradient id="paint0_linear" x1="47" y1="15" x2="16" y2="60.5" gradientUnits="userSpaceOnUse">
            <stop stop-color="#006DFF"/>
            <stop offset="1" stop-color="#006DFF" stop-opacity="0.26"/>
        </linearGradient>
    </defs>
</svg>

<svg xmlns="http://www.w3.org/2000/svg" fill="none" viewBox="0 0 64 64">
  <path fill="url(#paint0_linear)" d="M9.885 29.607c2.852 4.134 2.829 5.999 2.81 7.808-.136 13.156 8.879 17.22 14.233 17.547.409.023.803.037 1.199.037 2.476.03 4.93-.472 7.2-1.472 2.27-1 4.304-2.476 5.969-4.33l2.974-3.316.05-.06 1.476-1.649a4.173 4.173 0 001.077-1.915 4.207 4.207 0 00-.041-2.203 4.168 4.168 0 00-1.147-1.873 4.098 4.098 0 00-1.932-1.018 3.781 3.781 0 00-.505-3.09 3.714 3.714 0 00-1.15-1.104 3.669 3.669 0 00-1.501-.514 3.89 3.89 0 00.227-1.287 4.164 4.164 0 00-.924-2.628 4.079 4.079 0 00-2.364-1.437l4.927-5.002c.387-.39.693-.853.9-1.364a4.2 4.2 0 00-.942-4.566 4.068 4.068 0 00-4.542-.806 4.11 4.11 0 00-1.32.953c-5.399 5.83-12.11 12.462-14.758 13.55-1.544.644-1.917.143-3.11-1.837a14.494 14.494 0 00-3.252-4.088c-1.572-1.29-3.42-1.327-4.95-.101-1.73 1.383-1.98 3.762-.604 5.765zm32.991 9.306a2.25 2.25 0 011.622.68 2.34 2.34 0 01.666 1.664 2.362 2.362 0 01-.698 1.652l-1.44 1.603a2.068 2.068 0 01-2.352-.4l-.082-.087a2.143 2.143 0 01-.173-2.843l2.271-2.297.186.028zm-1.362-4.107a1.915 1.915 0 01.109 2.581.918.918 0 00-.104.116l-2.607 2.636a2.076 2.076 0 01-2.17-.46l-.11-.11a2.161 2.161 0 01-.127-2.83 95.908 95.908 0 002.693-2.204 1.876 1.876 0 012.307.271h.009zm-3.179-5.287a2.3 2.3 0 01.672 1.64 2.92 2.92 0 01-.953 1.939c-.554.486-1.749 1.456-2.63 2.154a2.156 2.156 0 01-2.148-.57l-.059-.06a2.245 2.245 0 01-.645-1.577c0-.592.232-1.16.645-1.578l2.135-2.159a2.253 2.253 0 012.979.207l.004.004zM11.62 25.261c.871-.698 1.748-.67 2.674.088a12.787 12.787 0 012.843 3.61c.421.797.95 1.532 1.571 2.182.017.025.035.05.055.073.077.083 1.816 2.008.045 4.805a.927.927 0 00.294 1.24.9.9 0 001.236-.252 6.038 6.038 0 00.836-5.053 5.12 5.12 0 001.308-.363c3.574-1.484 11.952-10.28 15.395-13.996a2.271 2.271 0 011.634-.735 2.28 2.28 0 011.662.68 2.321 2.321 0 01.674 1.642 2.344 2.344 0 01-.674 1.642l-9.245 9.334a4.073 4.073 0 00-.878 1.323 4.11 4.11 0 00.878 4.446l.05.05a3.97 3.97 0 002.32 1.154 4.04 4.04 0 00.035 2.012 4.007 4.007 0 001 1.74l.037.032.036.037a3.896 3.896 0 002.77 1.149 3.99 3.99 0 00.202 1.737c.195.556.51 1.061.924 1.478l.069.078c.525.53 1.188.9 1.911 1.066l-1.362 1.52-.036.041a15.923 15.923 0 01-5.849 4.032 15.766 15.766 0 01-6.998 1.072 14.096 14.096 0 01-6.558-2.297H21.297c2.27-.147 4.346-1.539 6.198-4.134a.927.927 0 00-.22-1.265.9.9 0 00-1.255.195c-1.513 2.131-3.134 3.27-4.823 3.385-2.357.156-4.169-1.75-4.196-1.778a.91.91 0 00-.132-.114c-1.421-2.27-2.398-5.384-2.352-9.688.027-2.43-.191-4.625-3.138-8.888-.686-.974-.872-2.38.24-3.28z"/>
  <path fill="#006DFF" fill-rule="evenodd" d="M39.71 11.649a.5.5 0 01-.683-.183l-2.932-5.078a.5.5 0 01.183-.683l.866-.5a.5.5 0 01.683.183l2.932 5.078a.5.5 0 01-.183.683l-.866.5zM55 19.5a.5.5 0 01-.5.5h-7a.5.5 0 01-.5-.5v-1a.5.5 0 01.5-.5h7a.5.5 0 01.5.5v1zM52.207 6.354a.5.5 0 010 .707l-5.146 5.146a.5.5 0 01-.707 0l-.708-.707a.5.5 0 010-.707l5.147-5.147a.5.5 0 01.707 0l.707.708z" clip-rule="evenodd"/>
  <defs>
    <linearGradient id="paint0_linear" x1="47" x2="16" y1="15" y2="60.5" gradientUnits="userSpaceOnUse">
      <stop stop-color="#006DFF"/>
      <stop offset="1" stop-color="#006DFF" stop-opacity=".26"/>
    </linearGradient>
  </defs>
</svg>
